Gruvbox-Plus-Dark/panel/22/battery-good.svg

<svg width="22" height="22" version="1.1" xmlns="http://www.w3.org/2000/svg">
  <defs>
    <style type="text/css">.ColorScheme-Text { color:#ebdbb2; } .ColorScheme-Highlight { color:#458588; }</style>
  </defs>
  <path class="ColorScheme-Text" d="m9 4v1h-3v12c0 0.55 0.446 1 1 1h8c0.554 0 1-0.45 1-1v-12h-3v-1z" fill="currentColor" opacity=".3"/>
  <path class="ColorScheme-Text" d="m6 9v8c0 0.55 0.446 1 1 1h8c0.554 0 1-0.45 1-1v-8h-10z" fill="currentColor"/>
</svg>

<svg xmlns="http://www.w3.org/2000/svg" width="22" height="22" version="1.1">
 <defs>
  <style id="current-color-scheme" type="text/css">
   .ColorScheme-Text { color:#ebdbb2; } .ColorScheme-Highlight { color:#458588; }
  </style>
 </defs>
 <path style="opacity:0.3;fill:currentColor" class="ColorScheme-Text" d="M 9,4 V 5 H 6 V 17 C 6,17.55 6.446,18 7,18 H 15 C 15.554,18 16,17.55 16,17 V 5 H 13 V 4 Z"/>
 <path style="fill:currentColor" class="ColorScheme-Text" d="M 6 9 L 6 17 C 6 17.55 6.446 18 7 18 L 15 18 C 15.554 18 16 17.55 16 17 L 16 9 L 6 9 z"/>
</svg>
